svg/couchdb-light.svg

<svg xmlns="http://www.w3.org/2000/svg" xml:space="preserve" viewBox="0 0 512 512"><path d="M416 312c0 21.2-11.2 31.6-32 32H128c-20.8-.4-32-10.8-32-32s11.2-31.6 32-32h256c20.8.4 32 10.8 32 32m-32 48H128c-20.8.4-32 10.8-32 32s11.2 31.6 32 32h256c20.8-.4 32-10.8 32-32s-11.2-31.6-32-32m80-176c-20.8.4-32 10.7-32 32v176c0 21.2 11.2 31.6 32 32 31.2-1.1 48-32.3 48-95.9v-80c0-42.5-16.8-63.3-48-64.1m-416 0c-31.2.8-48 21.5-48 64v80c0 63.7 16.8 94.8 48 95.9 20.8-.4 32-10.8 32-32V216c0-21.2-11.2-31.6-32-32m416-16c0-53-27.9-79-80-80H128c-52.1 1-80 27-80 80 31.2.6 48 16.1 48 48 0 31.8 16.8 47.4 48 48h224c31.2-.6 48-16.1 48-48 0-31.8 16.8-47.4 48-48" style="fill:#fff"/></svg>

<?xml version="1.0" encoding="utf-8"?>
<!-- Generator: Adobe Illustrator 28.2.0, SVG Export Plug-In . SVG Version: 6.00 Build 0)  -->
<svg version="1.1"
	 id="Layer_1" xmlns:dc="http://purl.org/dc/elements/1.1/" xmlns:cc="http://creativecommons.org/ns#" xmlns:rdf="http://www.w3.org/1999/02/22-rdf-syntax-ns#" xmlns:svg="http://www.w3.org/2000/svg"
	 xmlns="http://www.w3.org/2000/svg" xmlns:xlink="http://www.w3.org/1999/xlink" x="0px" y="0px" viewBox="0 0 512 512"
	 style="enable-background:new 0 0 512 512;" xml:space="preserve">
<style type="text/css">
	.st0{fill:#FFFFFF;}
</style>
<path id="path35" class="st0" d="M416,312c0,21.2-11.2,31.6-32,32l0,0H128l0,0c-20.8-0.4-32-10.8-32-32s11.2-31.6,32-32l0,0h256l0,0
	C404.8,280.4,416,290.8,416,312 M384,360L384,360H128l0,0c-20.8,0.4-32,10.8-32,32s11.2,31.6,32,32l0,0h256l0,0
	c20.8-0.4,32-10.8,32-32S404.8,360.4,384,360 M464,184L464,184c-20.8,0.4-32,10.7-32,32v176c0,21.2,11.2,31.6,32,32l0,0
	c31.2-1.1,48-32.3,48-95.9v-80C512,205.6,495.2,184.8,464,184 M48,184L48,184c-31.2,0.8-48,21.5-48,64v80c0,63.7,16.8,94.8,48,95.9
	l0,0c20.8-0.4,32-10.8,32-32V216C80,194.8,68.8,184.4,48,184 M464,168c0-53-27.9-79-80-80l0,0H128l0,0c-52.1,1-80,27-80,80l0,0
	c31.2,0.6,48,16.1,48,48c0,31.8,16.8,47.4,48,48l0,0h224l0,0c31.2-0.6,48-16.1,48-48C416,184.2,432.8,168.6,464,168L464,168z"/>
</svg>
